icons/dkbtantogo.svg

<?xml version="1.0" encoding="utf-8"?>
<!-- Generator: Adobe Illustrator 25.1.0, SVG Export Plug-In . SVG Version: 6.00 Build 0)  -->
<svg version="1.1"
	 id="Layer_2_1_" inkscape:export-filename="/home/see/repo/Arcticons/icons/dkbtantogo.svg.png" inkscape:export-xdpi="96" inkscape:export-ydpi="96" inkscape:version="1.0.1 (3bc2e813f5, 2020-09-07, custom)" xmlns:cc="http://creativecommons.org/ns#" xmlns:dc="http://purl.org/dc/elements/1.1/" xmlns:inkscape="http://www.inkscape.org/namespaces/inkscape" xmlns:rdf="http://www.w3.org/1999/02/22-rdf-syntax-ns#" xmlns:sodipodi="http://sodipodi.sourceforge.net/DTD/sodipodi-0.dtd" xmlns:svg="http://www.w3.org/2000/svg"
	 xmlns="http://www.w3.org/2000/svg" xmlns:xlink="http://www.w3.org/1999/xlink" x="0px" y="0px" viewBox="0 0 48 48"
	 style="enable-background:new 0 0 48 48;" xml:space="preserve">
<style type="text/css">
	.st0{fill:none;stroke:#FFFFFF;stroke-linecap:round;stroke-linejoin:round;}
</style>
<sodipodi:namedview  bordercolor="#666666" borderopacity="1" gridtolerance="10" guidetolerance="10" id="namedview25" inkscape:current-layer="Layer_2" inkscape:cx="24.110771" inkscape:cy="24.05676" inkscape:pageopacity="0" inkscape:pageshadow="2" inkscape:window-height="1060" inkscape:window-maximized="0" inkscape:window-width="1247" inkscape:window-x="0" inkscape:window-y="18" inkscape:zoom="17.25" objecttolerance="10" pagecolor="#ffffff" showgrid="false">
	</sodipodi:namedview>
<line id="line6" class="st0" x1="29.7" y1="38.4" x2="29.7" y2="27.2"/>
<path id="path8" class="st0" d="M29.7,27.2h4.7c1.5,0,2.8,1.2,2.8,2.8v0l0,0c0,1.5-1.2,2.8-2.8,2.8c0,0,0,0,0,0h-4.7"/>
<path id="path10" class="st0" d="M29.7,32.8h4.7c1.5,0,2.8,1.2,2.8,2.8c0,0,0,0,0,0l0,0c0,1.5-1.2,2.8-2.8,2.8c0,0,0,0,0,0h-4.7"/>
<path id="path12" class="st0" d="M10.8,38.4V27.2h1.9c3.1,0,5.6,2.5,5.6,5.6l0,0c0,3.1-2.5,5.6-5.6,5.6c0,0,0,0,0,0H10.8z"/>
<line id="line14" class="st0" x1="21.2" y1="27.2" x2="21.2" y2="38.4"/>
<line id="line16" class="st0" x1="22.7" y1="32.8" x2="26.8" y2="27.3"/>
<line id="line18" class="st0" x1="22.7" y1="32.8" x2="26.8" y2="38.4"/>
<line id="line20" class="st0" x1="22.7" y1="32.8" x2="21.2" y2="32.8"/>
<path id="rect22" class="st0" d="M7.5,5.5h33c1.1,0,2,0.9,2,2v33c0,1.1-0.9,2-2,2h-33c-1.1,0-2-0.9-2-2v-33C5.5,6.4,6.4,5.5,7.5,5.5
	z"/>
<path id="path25" class="st0" d="M27.9,14.3h-0.6v-2.1c0-2.1-1.7-3.8-3.8-3.8s-3.8,1.7-3.8,3.8l0,0v2.1h-0.6c-0.8,0-1.4,0.6-1.4,1.4
	v7.3c0,0.8,0.6,1.4,1.4,1.4h8.8c0.8,0,1.4-0.6,1.4-1.4c0,0,0,0,0,0l0,0v-7.3C29.3,15,28.7,14.4,27.9,14.3z M19.7,14.3h7.5"/>
</svg>

<svg xmlns="http://www.w3.org/2000/svg" viewBox="0 0 48 48"><defs><style>.a{fill:none;stroke:#fff;stroke-linecap:round;stroke-linejoin:round;}</style></defs><line class="a" x1="29.7" y1="38.4" x2="29.7" y2="27.2"/><path class="a" d="M29.7,27.2h4.7A2.8,2.8,0,0,1,37.2,30h0a2.8,2.8,0,0,1-2.8,2.8H29.7"/><path class="a" d="M29.7,32.8h4.7a2.8,2.8,0,0,1,2.8,2.8h0a2.8,2.8,0,0,1-2.8,2.8H29.7"/><path class="a" d="M10.8,38.4V27.2h1.9a5.59,5.59,0,0,1,5.6,5.6h0a5.59,5.59,0,0,1-5.6,5.6H10.8Z"/><line class="a" x1="21.2" y1="27.2" x2="21.2" y2="38.4"/><line class="a" x1="22.7" y1="32.8" x2="26.8" y2="27.3"/><line class="a" x1="22.7" y1="32.8" x2="26.8" y2="38.4"/><line class="a" x1="22.7" y1="32.8" x2="21.2" y2="32.8"/><path class="a" d="M7.5,5.5h33a2,2,0,0,1,2,2v33a2,2,0,0,1-2,2H7.5a2,2,0,0,1-2-2V7.5A2,2,0,0,1,7.5,5.5Z"/><path class="a" d="M27.9,14.3h-.6V12.2a3.8,3.8,0,0,0-7.6,0h0v2.1h-.6a1.37,1.37,0,0,0-1.4,1.4V23a1.37,1.37,0,0,0,1.4,1.4h8.8A1.37,1.37,0,0,0,29.3,23h0V15.7A1.5,1.5,0,0,0,27.9,14.3Zm-8.2,0h7.5"/></svg>
